images/icons/dial-pad.svg

<svg height="24pt" viewBox="0 0 24 24" width="24pt" xmlns="http://www.w3.org/2000/svg"><g fill="#fff"><path d="m14.183594 2.183594c0 1.203125-.980469 2.179687-2.183594 2.179687s-2.183594-.976562-2.183594-2.179687c0-1.207032.980469-2.183594 2.183594-2.183594s2.183594.976562 2.183594 2.183594zm0 0"/><path d="m7.636719 2.183594c0 1.203125-.976563 2.179687-2.183594 2.179687-1.203125 0-2.179687-.976562-2.179687-2.179687 0-1.207032.976562-2.183594 2.179687-2.183594 1.207031 0 2.183594.976562 2.183594 2.183594zm0 0"/><path d="m20.726562 2.183594c0 1.203125-.976562 2.179687-2.179687 2.179687-1.207031 0-2.183594-.976562-2.183594-2.179687 0-1.207032.976563-2.183594 2.183594-2.183594 1.203125 0 2.179687.976562 2.179687 2.183594zm0 0"/><path d="m14.183594 8.726562c0 1.207032-.980469 2.183594-2.183594 2.183594s-2.183594-.976562-2.183594-2.183594c0-1.203124.980469-2.179687 2.183594-2.179687s2.183594.976563 2.183594 2.179687zm0 0"/><path d="m7.636719 8.726562c0 1.207032-.976563 2.183594-2.183594 2.183594-1.203125 0-2.179687-.976562-2.179687-2.183594 0-1.203124.976562-2.179687 2.179687-2.179687 1.207031 0 2.183594.976563 2.183594 2.179687zm0 0"/><path d="m20.726562 8.726562c0 1.207032-.976562 2.183594-2.179687 2.183594-1.207031 0-2.183594-.976562-2.183594-2.183594 0-1.203124.976563-2.179687 2.183594-2.179687 1.203125 0 2.179687.976563 2.179687 2.179687zm0 0"/><path d="m14.183594 15.273438c0 1.203124-.980469 2.179687-2.183594 2.179687s-2.183594-.976563-2.183594-2.179687c0-1.207032.980469-2.183594 2.183594-2.183594s2.183594.976562 2.183594 2.183594zm0 0"/><path d="m14.183594 21.816406c0 1.207032-.980469 2.183594-2.183594 2.183594s-2.183594-.976562-2.183594-2.183594c0-1.203125.980469-2.179687 2.183594-2.179687s2.183594.976562 2.183594 2.179687zm0 0"/><path d="m7.636719 15.273438c0 1.203124-.976563 2.179687-2.183594 2.179687-1.203125 0-2.179687-.976563-2.179687-2.179687 0-1.207032.976562-2.183594 2.179687-2.183594 1.207031 0 2.183594.976562 2.183594 2.183594zm0 0"/><path d="m20.726562 15.273438c0 1.203124-.976562 2.179687-2.179687 2.179687-1.207031 0-2.183594-.976563-2.183594-2.179687 0-1.207032.976563-2.183594 2.183594-2.183594 1.203125 0 2.179687.976562 2.179687 2.183594zm0 0"/></g></svg>

<?xml version="1.0" encoding="UTF-8"?>
<svg xmlns="http://www.w3.org/2000/svg" xmlns:xlink="http://www.w3.org/1999/xlink" width="24pt" height="24pt" viewBox="0 0 24 24" version="1.1">
<g id="surface1">
<path style=" stroke:none;fill-rule:nonzero;fill:rgb(100%,100%,100%);fill-opacity:1;" d="M 14.183594 2.183594 C 14.183594 3.386719 13.203125 4.363281 12 4.363281 C 10.796875 4.363281 9.816406 3.386719 9.816406 2.183594 C 9.816406 0.976562 10.796875 0 12 0 C 13.203125 0 14.183594 0.976562 14.183594 2.183594 Z M 14.183594 2.183594 "/>
<path style=" stroke:none;fill-rule:nonzero;fill:rgb(100%,100%,100%);fill-opacity:1;" d="M 7.636719 2.183594 C 7.636719 3.386719 6.660156 4.363281 5.453125 4.363281 C 4.25 4.363281 3.273438 3.386719 3.273438 2.183594 C 3.273438 0.976562 4.25 0 5.453125 0 C 6.660156 0 7.636719 0.976562 7.636719 2.183594 Z M 7.636719 2.183594 "/>
<path style=" stroke:none;fill-rule:nonzero;fill:rgb(100%,100%,100%);fill-opacity:1;" d="M 20.726562 2.183594 C 20.726562 3.386719 19.75 4.363281 18.546875 4.363281 C 17.339844 4.363281 16.363281 3.386719 16.363281 2.183594 C 16.363281 0.976562 17.339844 0 18.546875 0 C 19.75 0 20.726562 0.976562 20.726562 2.183594 Z M 20.726562 2.183594 "/>
<path style=" stroke:none;fill-rule:nonzero;fill:rgb(100%,100%,100%);fill-opacity:1;" d="M 14.183594 8.726562 C 14.183594 9.933594 13.203125 10.910156 12 10.910156 C 10.796875 10.910156 9.816406 9.933594 9.816406 8.726562 C 9.816406 7.523438 10.796875 6.546875 12 6.546875 C 13.203125 6.546875 14.183594 7.523438 14.183594 8.726562 Z M 14.183594 8.726562 "/>
<path style=" stroke:none;fill-rule:nonzero;fill:rgb(100%,100%,100%);fill-opacity:1;" d="M 7.636719 8.726562 C 7.636719 9.933594 6.660156 10.910156 5.453125 10.910156 C 4.25 10.910156 3.273438 9.933594 3.273438 8.726562 C 3.273438 7.523438 4.25 6.546875 5.453125 6.546875 C 6.660156 6.546875 7.636719 7.523438 7.636719 8.726562 Z M 7.636719 8.726562 "/>
<path style=" stroke:none;fill-rule:nonzero;fill:rgb(100%,100%,100%);fill-opacity:1;" d="M 20.726562 8.726562 C 20.726562 9.933594 19.75 10.910156 18.546875 10.910156 C 17.339844 10.910156 16.363281 9.933594 16.363281 8.726562 C 16.363281 7.523438 17.339844 6.546875 18.546875 6.546875 C 19.75 6.546875 20.726562 7.523438 20.726562 8.726562 Z M 20.726562 8.726562 "/>
<path style=" stroke:none;fill-rule:nonzero;fill:rgb(100%,100%,100%);fill-opacity:1;" d="M 14.183594 15.273438 C 14.183594 16.476562 13.203125 17.453125 12 17.453125 C 10.796875 17.453125 9.816406 16.476562 9.816406 15.273438 C 9.816406 14.066406 10.796875 13.089844 12 13.089844 C 13.203125 13.089844 14.183594 14.066406 14.183594 15.273438 Z M 14.183594 15.273438 "/>
<path style=" stroke:none;fill-rule:nonzero;fill:rgb(100%,100%,100%);fill-opacity:1;" d="M 14.183594 21.816406 C 14.183594 23.023438 13.203125 24 12 24 C 10.796875 24 9.816406 23.023438 9.816406 21.816406 C 9.816406 20.613281 10.796875 19.636719 12 19.636719 C 13.203125 19.636719 14.183594 20.613281 14.183594 21.816406 Z M 14.183594 21.816406 "/>
<path style=" stroke:none;fill-rule:nonzero;fill:rgb(100%,100%,100%);fill-opacity:1;" d="M 7.636719 15.273438 C 7.636719 16.476562 6.660156 17.453125 5.453125 17.453125 C 4.25 17.453125 3.273438 16.476562 3.273438 15.273438 C 3.273438 14.066406 4.25 13.089844 5.453125 13.089844 C 6.660156 13.089844 7.636719 14.066406 7.636719 15.273438 Z M 7.636719 15.273438 "/>
<path style=" stroke:none;fill-rule:nonzero;fill:rgb(100%,100%,100%);fill-opacity:1;" d="M 20.726562 15.273438 C 20.726562 16.476562 19.75 17.453125 18.546875 17.453125 C 17.339844 17.453125 16.363281 16.476562 16.363281 15.273438 C 16.363281 14.066406 17.339844 13.089844 18.546875 13.089844 C 19.75 13.089844 20.726562 14.066406 20.726562 15.273438 Z M 20.726562 15.273438 "/>
</g>
</svg>
